X: 3
T: Wissahickon Drive
I: Wissahickon DriveR-134Areel
C: Liz Carroll
R: reel
M: C|
K: A
"A"EFAB cBAB| ceef ecBA| "Bm"F2dF edde| "D"f2ef "E"ecBA|
"A"EFAB cBAB| c2ef eAce| "D"fagf "A"eAcA| "E"BEGB "A"A4 :|
|:"A"a2ga baga| "D"fAde fagf| "A"eAce aece| aedc "E"B2fg|
"A"a2ga baga| "D"fAde fagf| "A"eAce "D"aedc| "E"BEGB "A"A4 :|
%%text Roaring Jelly  R-134
%%text 05/05/99
